static/images/social/discord.svg

<svg width="32" height="25" viewBox="0 0 32 25" fill="none" xmlns="http://www.w3.org/2000/svg">
<path d="M27.076 2.02679C25.0493 1.082 22.855 0.396271 20.5692 7.00944e-05C20.5492 -0.000570842 20.5292 0.00319015 20.5108 0.0110887C20.4924 0.0189872 20.4759 0.0308315 20.4625 0.045786C20.1882 0.548657 19.8682 1.20391 19.6549 1.70678C17.2304 1.34106 14.7648 1.34106 12.3404 1.70678C12.1271 1.18867 11.8071 0.548657 11.5175 0.045786C11.5023 0.0153089 11.4566 7.00944e-05 11.4108 7.00944e-05C9.12507 0.396271 6.94596 1.082 4.904 2.02679C4.88876 2.02679 4.87353 2.04203 4.85829 2.05727C0.713413 8.25934 -0.429476 14.2938 0.134349 20.2673C0.134349 20.2978 0.149587 20.3282 0.180064 20.3435C2.923 22.355 5.55926 23.574 8.16505 24.3817C8.21076 24.3969 8.25648 24.3817 8.27171 24.3512C8.88126 23.5131 9.42984 22.6293 9.90224 21.6997C9.93271 21.6388 9.90224 21.5778 9.84128 21.5626C8.97269 21.2273 8.14981 20.8311 7.34217 20.374C7.28121 20.3435 7.28121 20.2521 7.32693 20.2063C7.49455 20.0844 7.66217 19.9473 7.8298 19.8254C7.86027 19.7949 7.90599 19.7949 7.93647 19.8101C13.1785 22.2026 18.832 22.2026 24.0131 19.8101C24.0436 19.7949 24.0893 19.7949 24.1198 19.8254C24.2874 19.9625 24.455 20.0844 24.6226 20.2216C24.6836 20.2673 24.6836 20.3587 24.6074 20.3892C23.815 20.8616 22.9769 21.2426 22.1083 21.5778C22.0473 21.593 22.0321 21.6692 22.0473 21.715C22.535 22.6445 23.0836 23.5283 23.6779 24.3665C23.7236 24.3817 23.7693 24.3969 23.815 24.3817C26.436 23.574 29.0723 22.355 31.8152 20.3435C31.8457 20.3282 31.8609 20.2978 31.8609 20.2673C32.5314 13.3642 30.7485 7.37551 27.137 2.05727C27.1218 2.04203 27.1065 2.02679 27.076 2.02679ZM10.6946 16.6253C9.12507 16.6253 7.81456 15.1776 7.81456 13.3947C7.81456 11.6118 9.09459 10.1642 10.6946 10.1642C12.3099 10.1642 13.59 11.6271 13.5747 13.3947C13.5747 15.1776 12.2947 16.6253 10.6946 16.6253ZM21.3159 16.6253C19.7463 16.6253 18.4358 15.1776 18.4358 13.3947C18.4358 11.6118 19.7158 10.1642 21.3159 10.1642C22.9312 10.1642 24.2112 11.6271 24.196 13.3947C24.196 15.1776 22.9312 16.6253 21.3159 16.6253Z" fill="white"/>
</svg>

<svg width="32" height="25" fill="none" xmlns="http://www.w3.org/2000/svg"><path d="M27.076 2.027A25.879 25.879 0 0 0 20.569 0a.137.137 0 0 0-.107.046 20.735 20.735 0 0 0-.807 1.66 24.52 24.52 0 0 0-7.315 0 15.257 15.257 0 0 0-.822-1.66C11.502.016 11.457 0 11.41 0a26.075 26.075 0 0 0-6.507 2.027c-.015 0-.03.015-.046.03C.713 8.26-.429 14.294.134 20.267c0 .03.016.061.046.076 2.743 2.012 5.38 3.231 7.985 4.039.046.015.091 0 .107-.03a19.634 19.634 0 0 0 1.63-2.652c.03-.061 0-.122-.06-.137a18.772 18.772 0 0 1-2.5-1.189c-.06-.03-.06-.122-.015-.168.168-.122.335-.259.503-.38a.093.093 0 0 1 .106-.016c5.242 2.393 10.896 2.393 16.077 0a.094.094 0 0 1 .107.015c.167.137.335.26.503.397.06.045.06.137-.016.167-.792.473-1.63.854-2.499 1.189-.06.015-.076.091-.06.137.487.93 1.036 1.813 1.63 2.651.046.016.091.03.137.016 2.621-.808 5.257-2.027 8-4.039a.084.084 0 0 0 .046-.076c.67-6.903-1.113-12.891-4.724-18.21-.015-.015-.03-.03-.061-.03ZM10.695 16.625c-1.57 0-2.88-1.447-2.88-3.23s1.28-3.23 2.88-3.23c1.615 0 2.895 1.462 2.88 3.23 0 1.783-1.28 3.23-2.88 3.23Zm10.62 0c-1.569 0-2.88-1.447-2.88-3.23s1.28-3.23 2.88-3.23c1.616 0 2.896 1.462 2.881 3.23 0 1.783-1.265 3.23-2.88 3.23Z" fill="#fff"/></svg>
